public/assets/imgs/projetos/icons/question_icon-11cda.svg

<svg fill="none" height="45" viewBox="0 0 28 45" width="28" xmlns="http://www.w3.org/2000/svg"><path clip-rule="evenodd" d="m15.9003 27.0291c0-.752.4765-1.4214 1.1871-1.6676 2.8308-.9804 4.9975-2.5106 6.5009-4.4257 1.9571-2.4929 2.657-5.477 2.3511-8.3132-.6055-5.61315-5.2102-10.85789-12.0244-10.85789-3.7173 0-6.84484 1.69646-8.97279 4.00311-2.09671 2.27278-3.36872 5.30208-3.15382 8.16738.082 1.0934 1.03484 1.9133 2.12822 1.8313 1.09337-.082 1.91325-1.0348 1.83125-2.1282-.11555-1.5406.59256-3.5303 2.11275-5.17818 1.48694-1.61182 3.59909-2.72483 6.05439-2.72483 4.5222 0 7.6592 3.44278 8.0767 7.31311.2044 1.8949-.2622 3.8251-1.5265 5.4356-1.2612 1.6065-3.44 3.0487-6.9262 3.721-.9342.1802-1.6093.9979-1.6093 1.9494v8.3824c0 1.0964.8888 1.9853 1.9853 1.9853 1.0964 0 1.9853-.8889 1.9853-1.9853zm1.7647 0c3.1093-1.077 5.5733-2.7896 7.3114-5.0036 2.2652-2.8854 3.0685-6.3379 2.7175-9.5922-.6886-6.3838-5.9425-12.4333-13.7789-12.4333-4.27868 0-7.85745 1.95624-10.26986 4.57124-2.35241 2.54996-3.875617 6.04126-3.6165123 9.49596.1548953 2.0653 1.9546923 3.614 4.0199623 3.4591s3.61393-1.9547 3.45903-4.02c-.07178-.957.39036-2.4841 1.65005-3.8496 1.19973-1.30044 2.85983-2.1567 4.75733-2.1567 3.5239 0 5.9906 2.6637 6.3222 5.7377.159 1.4745-.2026 2.937-1.1601 4.1566-.9516 1.2122-2.7216 2.4703-5.8722 3.078-1.7648.3403-3.0399 1.8849-3.0399 3.6821v8.3824c0 2.071 1.6789 3.75 3.75 3.75s3.75-1.679 3.75-3.75zm-3.7498-3.8673c.4873 0 .8823.395.8823.8823v.8824c0 .4873-.395.8823-.8823.8823-.4874 0-.8824-.395-.8824-.8823v-.8824c0-.4873.395-.8823.8824-.8823zm0 3.1985c.4873 0 .8823.395.8823.8823v5.1839c0 .4873-.395.8823-.8823.8823-.4874 0-.8824-.395-.8824-.8823v-5.1839c0-.4873.395-.8823.8824-.8823zm1.9852 15c0 1.0355-.8394 1.875-1.875 1.875-1.0355 0-1.875-.8395-1.875-1.875s.8395-1.875 1.875-1.875c1.0356 0 1.875.8395 1.875 1.875zm1.7648 0c0 2.0101-1.6296 3.6397-3.6398 3.6397-2.0101 0-3.6397-1.6296-3.6397-3.6397 0-2.0102 1.6296-3.6397 3.6397-3.6397 2.0102 0 3.6398 1.6295 3.6398 3.6397z" fill="#000" fill-rule="evenodd"/></svg>

<svg width="28" height="45" viewBox="0 0 28 45" fill="none" xmlns="http://www.w3.org/2000/svg">
<path fill-rule="evenodd" clip-rule="evenodd" d="M15.9003 27.0291C15.9003 26.2771 16.3768 25.6077 17.0874 25.3615C19.9182 24.3811 22.0849 22.8509 23.5883 20.9358C25.5454 18.4429 26.2453 15.4588 25.9394 12.6226C25.3339 7.00945 20.7292 1.76471 13.915 1.76471C10.1977 1.76471 7.07016 3.46117 4.94221 5.76782C2.8455 8.0406 1.57349 11.0699 1.78839 13.9352C1.87039 15.0286 2.82323 15.8485 3.91661 15.7665C5.00998 15.6845 5.82986 14.7317 5.74786 13.6383C5.63231 12.0977 6.34042 10.108 7.86061 8.46012C9.34755 6.8483 11.4597 5.73529 13.915 5.73529C18.4372 5.73529 21.5742 9.17807 21.9917 13.0484C22.1961 14.9433 21.7295 16.8735 20.4652 18.484C19.204 20.0905 17.0252 21.5327 13.539 22.205C12.6048 22.3852 11.9297 23.2029 11.9297 24.1544V32.5368C11.9297 33.6332 12.8185 34.5221 13.915 34.5221C15.0114 34.5221 15.9003 33.6332 15.9003 32.5368V27.0291ZM17.665 27.0291C20.7743 25.9521 23.2383 24.2395 24.9764 22.0255C27.2416 19.1401 28.0449 15.6876 27.6939 12.4333C27.0053 6.0495 21.7514 0 13.915 0C9.63632 0 6.05755 1.95624 3.64514 4.57124C1.29273 7.1212 -0.230477 10.6125 0.0286277 14.0672C0.183523 16.1325 1.98332 17.6812 4.04859 17.5263C6.11386 17.3714 7.66252 15.5716 7.50762 13.5063C7.43584 12.5493 7.89798 11.0222 9.15767 9.6567C10.3574 8.35626 12.0175 7.5 13.915 7.5C17.4389 7.5 19.9056 10.1637 20.2372 13.2377C20.3962 14.7122 20.0346 16.1747 19.0771 17.3943C18.1255 18.6065 16.3555 19.8646 13.2049 20.4723C11.4401 20.8126 10.165 22.3572 10.165 24.1544V32.5368C10.165 34.6078 11.8439 36.2868 13.915 36.2868C15.9861 36.2868 17.665 34.6078 17.665 32.5368V27.0291ZM13.9152 23.1618C14.4025 23.1618 14.7975 23.5568 14.7975 24.0441V24.9265C14.7975 25.4138 14.4025 25.8088 13.9152 25.8088C13.4278 25.8088 13.0328 25.4138 13.0328 24.9265V24.0441C13.0328 23.5568 13.4278 23.1618 13.9152 23.1618ZM13.9152 26.3603C14.4025 26.3603 14.7975 26.7553 14.7975 27.2426V32.4265C14.7975 32.9138 14.4025 33.3088 13.9152 33.3088C13.4278 33.3088 13.0328 32.9138 13.0328 32.4265V27.2426C13.0328 26.7553 13.4278 26.3603 13.9152 26.3603ZM15.9004 41.3603C15.9004 42.3958 15.061 43.2353 14.0254 43.2353C12.9899 43.2353 12.1504 42.3958 12.1504 41.3603C12.1504 40.3248 12.9899 39.4853 14.0254 39.4853C15.061 39.4853 15.9004 40.3248 15.9004 41.3603ZM17.6652 41.3603C17.6652 43.3704 16.0356 45 14.0254 45C12.0153 45 10.3857 43.3704 10.3857 41.3603C10.3857 39.3501 12.0153 37.7206 14.0254 37.7206C16.0356 37.7206 17.6652 39.3501 17.6652 41.3603Z" fill="black"/>
</svg>
